X: 54
T: No_59_Song_on_Evening_Before_the_Buffalo_Dance.krn
N: Derived from No_59_Song_on_Evening_Before_the_Buffalo_Dance.krn
%%abc-version 2.0
%%abcx-abcm2ps-target-version 5.9.1 (29 Sep 2008)
%%abc-creator hum2abc beta
%%abcx-conversion-date 2019/03/15 08:25:35
%%humdrum-veritas 3165238117
%%humdrum-veritas-data 1817970760
%%linebreak <none>
%%barnumbers 0
L: 1/4
M: 2/4
K: B clef=bass
[K:clef=bass][M:2/4]zF, ]|:  
D2 | 
[M:3/4]DCB, | 
[M:2/4]D2 | 
[M:3/4]DCB, | 
(B,2F,) | 
[M:2/4]F,z | 
F,/F,/-F, | 
F,F, | 
F,2- | 
F,2 | 
[M:3/4]F,zF, :|]  
[M:2/4]F,z ]|:  
B,/F,/F, | 
[M:3/4]F,zB,/F,/ | 
B,2F, | 
F,/D,/C,E, | 
F,2C, | 
B,,zD, | 
D,2C, | 
B,,2D,/C,/ | 
B,,F,,F,, | 
[M:5/4]F,,2-F,,2z :|]  



